; generated by PrusaSlicer 2.2.0+win64 on 2020-05-28 at 19:03:11 UTC

; 

; external perimeters extrusion width = 0.45mm
; perimeters extrusion width = 0.45mm
; infill extrusion width = 0.45mm
; solid infill extrusion width = 0.45mm
; top infill extrusion width = 0.40mm
; first layer extrusion width = 0.42mm

M73 P0 R6
M73 Q0 S7
M201 X1000 Y1000 Z1000 E5000 ; sets maximum accelerations, mm/sec^2
M203 X200 Y200 Z12 E120 ; sets maximum feedrates, mm/sec
M204 P1250 R1250 T1250 ; sets acceleration (P, T) and retract acceleration (R), mm/sec^2
M205 X8.00 Y8.00 Z0.40 E4.50 ; sets the jerk limits, mm/sec
M205 S0 T0 ; sets the minimum extruding and travel feed rate, mm/sec
M107
M862.3 P "MK3S" ; printer model check
M862.1 P0.4 ; nozzle diameter check
M115 U3.8.1 ; tell printer latest fw version
G90 ; use absolute coordinates
M83 ; extruder relative mode
M104 S215 ; set extruder temp
M140 S60 ; set bed temp
M190 S60 ; wait for bed temp
M109 S215 ; wait for extruder temp
G28 W ; home all without mesh bed level
G80 ; mesh bed leveling
G1 Y-3.0 F1000.0 ; go outside print area
G92 E0.0
G1 X60.0 E9.0 F1000.0 ; intro line
M73 Q0 S6
M73 P0 R6
G1 X100.0 E12.5 F1000.0 ; intro line
G92 E0.0
M221 S95
G21 ; set units to millimeters
G90 ; use absolute coordinates
M83 ; use relative distances for extrusion
M900 K0.06 ; Filament gcode LA 1.5
M900 K30 ; Filament gcode LA 1.0
;BEFORE_LAYER_CHANGE
G92 E0.0
;0.2


G1 E-0.80000 F2100.00000
G1 Z0.600 F10800.000
;AFTER_LAYER_CHANGE
;0.2
G1 X110.735 Y88.664
G1 Z0.200
G1 E0.80000 F2100.00000
M204 S1000
G1 F1200.000
G1 X111.154 Y87.711 E0.03264
G1 X111.756 Y86.917 E0.03122
G1 X112.547 Y86.265 E0.03216
G1 X113.629 Y85.761 E0.03743
G1 X114.600 Y85.577 E0.03097
G1 X135.192 Y85.568 E0.64565
G1 X135.879 Y85.639 E0.02165
G1 X136.694 Y85.873 E0.02659
G1 X137.451 Y86.264 E0.02670
G1 X137.988 Y86.672 E0.02117
G1 X138.565 Y87.294 E0.02659
G1 X139.010 Y88.016 E0.02658
G1 X139.260 Y88.647 E0.02129
G1 X139.434 Y89.488 E0.02694
G1 X139.457 Y120.100 E0.95981
G1 X139.265 Y121.336 E0.03923
G1 X138.846 Y122.289 E0.03264
G1 X138.242 Y123.085 E0.03134
G1 X137.440 Y123.743 E0.03252
G1 X136.349 Y124.246 E0.03767
G1 X135.332 Y124.428 E0.03240
G1 X114.754 Y124.432 E0.64518
G1 X113.741 Y124.273 E0.03217
G1 X112.782 Y123.877 E0.03252
G1 X111.814 Y123.141 E0.03814
G1 X111.171 Y122.317 E0.03276
G1 X110.742 Y121.360 E0.03288
G1 X110.545 Y120.164 E0.03802
G1 X110.543 Y89.896 E0.94902
G1 X110.726 Y88.723 E0.03723
G1 F8640.000
G1 X111.154 Y87.711 E-0.25376
G1 X111.756 Y86.917 E-0.22991
G1 X112.547 Y86.265 E-0.23687
G1 X112.702 Y86.193 E-0.03946
G1 E-0.04000 F2100.00000
G1 Z0.800 F10800.000
G1 X134.284 Y119.146
G1 Z0.200
G1 E0.80000 F2100.00000
G1 F1200.000
G1 X134.514 Y118.990 E0.00870
G1 X134.757 Y118.893 E0.00820
G1 X135.029 Y118.848 E0.00865
G1 X135.138 Y118.849 E0.00343
G1 X135.403 Y118.893 E0.00842
G1 X135.646 Y118.990 E0.00821
G1 X135.863 Y119.137 E0.00820
G1 X136.043 Y119.326 E0.00820
G1 X136.185 Y119.563 E0.00865
G1 X136.225 Y119.665 E0.00344
G1 X136.282 Y119.927 E0.00842
G1 X136.282 Y120.189 E0.00821
G1 X136.226 Y120.444 E0.00820
G1 X136.116 Y120.681 E0.00820
G1 X135.876 Y120.971 E0.01178
G1 X135.646 Y121.126 E0.00870
G1 X135.390 Y121.228 E0.00865
G1 X135.015 Y121.266 E0.01182
G1 X134.757 Y121.223 E0.00821
G1 X134.514 Y121.126 E0.00820
G1 X134.285 Y120.972 E0.00865
G1 X134.206 Y120.896 E0.00344
G1 X134.044 Y120.682 E0.00842
G1 X133.934 Y120.444 E0.00821
G1 X133.878 Y120.189 E0.00820
G1 X133.878 Y119.927 E0.00820
G1 X133.934 Y119.672 E0.00820
G1 X134.044 Y119.435 E0.00820
G1 X134.240 Y119.187 E0.00992
G1 X133.981 Y118.913 F10800.000
G1 F1200.000
G1 X134.336 Y118.655 E0.01376
G1 X134.655 Y118.528 E0.01077
G1 X134.999 Y118.471 E0.01093
G1 X135.170 Y118.472 E0.00537
G1 X135.505 Y118.527 E0.01063
G1 X135.824 Y118.655 E0.01077
G1 X136.108 Y118.847 E0.01077
G1 X136.345 Y119.097 E0.01077
G1 X136.524 Y119.396 E0.01093
G1 X136.587 Y119.555 E0.00537
G1 X136.659 Y119.886 E0.01063
G1 X136.659 Y120.230 E0.01077
G1 X136.585 Y120.565 E0.01077
G1 X136.441 Y120.877 E0.01077
G1 X136.230 Y121.155 E0.01095
G1 X136.113 Y121.266 E0.00504
G1 X135.824 Y121.462 E0.01095
G1 X135.500 Y121.591 E0.01093
G1 X135.333 Y121.626 E0.00537
G1 X134.994 Y121.644 E0.01063
G1 X134.655 Y121.589 E0.01078
G1 X134.336 Y121.462 E0.01077
G1 X134.047 Y121.266 E0.01093
G1 X133.924 Y121.147 E0.00537
G1 X133.719 Y120.877 E0.01063
G1 X133.575 Y120.565 E0.01077
G1 X133.501 Y120.230 E0.01077
G1 X133.501 Y119.886 E0.01077
G1 X133.575 Y119.551 E0.01077
G1 X133.719 Y119.239 E0.01077
G1 X133.938 Y118.954 E0.01126
G1 X134.364 Y119.029 F10800.000
G1 F8640.000
G1 X134.336 Y118.655 E-0.11511
G1 X134.655 Y118.528 E-0.07931
G1 X134.999 Y118.471 E-0.08050
G1 X135.170 Y118.472 E-0.03954
G1 X135.505 Y118.527 E-0.07828
G1 X135.824 Y118.655 E-0.07935
G1 X136.108 Y118.847 E-0.07931
G1 X136.345 Y119.097 E-0.07931
G1 X136.524 Y119.396 E-0.08050
G1 X136.587 Y119.555 E-0.03954
G1 X136.595 Y119.594 E-0.00923
G1 E-0.04000 F2100.00000
G1 Z0.800 F10800.000
G1 X136.156 Y119.878
G1 Z0.200
G1 E0.80000 F2100.00000
G1 F1200.000
G1 X135.513 Y119.241 E0.03349
G1 X135.327 Y119.167 E0.00743
G1 X135.114 Y119.132 E0.00798
G1 X134.833 Y119.167 E0.01051
G1 X134.820 Y119.172 E0.00050
G1 X135.965 Y120.316 E0.05992
G1 X135.875 Y120.529 E0.00855
G1 X135.726 Y120.708 E0.00861
G1 X134.430 Y119.412 E0.06787
G1 X134.285 Y119.587 E0.00842
G1 X134.194 Y119.806 E0.00877
G1 X135.335 Y120.946 E0.05972
G1 X135.024 Y120.980 E0.01157
G1 X134.833 Y120.949 E0.00719
G1 X134.647 Y120.875 E0.00740
G1 X134.007 Y120.248 E0.03318
G1 F8640.000
G1 X134.647 Y120.875 E-0.20689
G1 X134.833 Y120.949 E-0.04617
G1 X135.024 Y120.980 E-0.04481
G1 X135.335 Y120.946 E-0.07214
G1 X134.194 Y119.806 E-0.37239
G1 X134.224 Y119.735 E-0.01761
G1 E-0.04000 F2100.00000
G1 Z0.800 F10800.000
G1 X135.283 Y111.213
G1 Z0.200
G1 E0.80000 F2100.00000
G1 F1200.000
G1 X135.015 Y111.227 E0.00842
G1 X134.757 Y111.184 E0.00821
G1 X134.514 Y111.088 E0.00820
G1 X134.285 Y110.933 E0.00865
G1 X134.206 Y110.857 E0.00344
G1 X134.044 Y110.643 E0.00842
G1 X133.934 Y110.405 E0.00821
G1 X133.878 Y110.150 E0.00820
G1 X133.878 Y109.889 E0.00820
G1 X133.934 Y109.633 E0.00820
G1 X134.044 Y109.396 E0.00820
G1 X134.284 Y109.107 E0.01178
G1 X134.514 Y108.951 E0.00870
G1 X134.757 Y108.854 E0.00820
G1 X135.029 Y108.810 E0.00865
G1 X135.138 Y108.810 E0.00343
G1 X135.403 Y108.854 E0.00842
G1 X135.646 Y108.951 E0.00821
G1 X135.863 Y109.098 E0.00820
G1 X136.043 Y109.288 E0.00820
G1 X136.185 Y109.524 E0.00865
G1 X136.225 Y109.626 E0.00344
G1 X136.282 Y109.888 E0.00842
G1 X136.282 Y110.150 E0.00821
G1 X136.226 Y110.405 E0.00820
G1 X136.116 Y110.643 E0.00820
G1 X135.876 Y110.932 E0.01178
G1 X135.646 Y111.088 E0.00870
G1 X135.342 Y111.200 E0.01018
G1 X135.421 Y111.569 F10800.000
G1 F1200.000
G1 X134.994 Y111.606 E0.01342
G1 X134.655 Y111.550 E0.01078
G1 X134.336 Y111.423 E0.01077
G1 X134.047 Y111.227 E0.01093
G1 X133.924 Y111.109 E0.00537
G1 X133.719 Y110.838 E0.01063
G1 X133.575 Y110.527 E0.01077
G1 X133.501 Y110.191 E0.01077
G1 X133.501 Y109.848 E0.01077
G1 X133.575 Y109.512 E0.01077
G1 X133.719 Y109.200 E0.01077
G1 X133.930 Y108.922 E0.01095
G1 X134.047 Y108.812 E0.00504
G1 X134.336 Y108.616 E0.01095
G1 X134.655 Y108.489 E0.01077
G1 X134.999 Y108.432 E0.01093
G1 X135.170 Y108.433 E0.00537
G1 X135.505 Y108.489 E0.01063
G1 X135.824 Y108.616 E0.01077
G1 X136.108 Y108.809 E0.01077
G1 X136.345 Y109.058 E0.01077
G1 X136.524 Y109.357 E0.01093
G1 X136.587 Y109.516 E0.00537
G1 X136.659 Y109.847 E0.01063
G1 X136.659 Y110.191 E0.01077
G1 X136.585 Y110.527 E0.01077
G1 X136.441 Y110.838 E0.01077
G1 X136.230 Y111.116 E0.01095
G1 X136.113 Y111.227 E0.00504
G1 X135.824 Y111.423 E0.01095
G1 X135.479 Y111.556 E0.01159
G1 X135.153 Y111.272 F10800.000
G1 F8640.000
G1 X134.994 Y111.606 E-0.11260
G1 X134.655 Y111.550 E-0.07935
G1 X134.336 Y111.423 E-0.07931
G1 X134.047 Y111.227 E-0.08050
G1 X133.924 Y111.109 E-0.03954
G1 X133.719 Y110.838 E-0.07828
G1 X133.575 Y110.527 E-0.07935
G1 X133.501 Y110.191 E-0.07931
G1 X133.501 Y109.848 E-0.07931
G1 X133.550 Y109.626 E-0.05244
G1 E-0.04000 F2100.00000
G1 Z0.800 F10800.000
G1 X134.007 Y110.209
G1 Z0.200
G1 E0.80000 F2100.00000
G1 F1200.000
G1 X134.647 Y110.836 E0.03318
G1 X134.833 Y110.910 E0.00740
G1 X135.024 Y110.942 E0.00719
G1 X135.335 Y110.907 E0.01157
G1 X134.194 Y109.767 E0.05972
G1 X134.285 Y109.548 E0.00877
G1 X134.430 Y109.373 E0.00842
G1 X135.726 Y110.669 E0.06787
G1 X135.875 Y110.491 E0.00861
G1 X135.965 Y110.278 E0.00855
G1 X134.820 Y109.133 E0.05992
G1 X134.833 Y109.128 E0.00050
G1 X135.114 Y109.093 E0.01051
G1 X135.327 Y109.128 E0.00798
G1 X135.513 Y109.202 E0.00743
G1 X136.156 Y109.839 E0.03349
G1 F8640.000
G1 X135.513 Y109.202 E-0.20887
G1 X135.327 Y109.128 E-0.04633
G1 X135.114 Y109.093 E-0.04974
G1 X134.833 Y109.128 E-0.06553
G1 X134.820 Y109.133 E-0.00312
G1 X135.965 Y110.278 E-0.37369
G1 X135.943 Y110.329 E-0.01272
G1 E-0.04000 F2100.00000
G1 Z0.800 F10800.000
G1 X135.283 Y101.174
G1 Z0.200
G1 E0.80000 F2100.00000
G1 F1200.000
G1 X135.015 Y101.188 E0.00842
G1 X134.757 Y101.146 E0.00821
G1 X134.514 Y101.049 E0.00820
G1 X134.285 Y100.894 E0.00865
G1 X134.206 Y100.818 E0.00344
G1 X134.044 Y100.604 E0.00842
G1 X133.934 Y100.367 E0.00821
G1 X133.878 Y100.111 E0.00820
G1 X133.878 Y99.850 E0.00820
G1 X133.934 Y99.595 E0.00820
G1 X134.044 Y99.357 E0.00820
G1 X134.284 Y99.068 E0.01178
G1 X134.514 Y98.912 E0.00870
G1 X134.757 Y98.816 E0.00820
G1 X135.029 Y98.771 E0.00865
G1 X135.138 Y98.772 E0.00343
G1 X135.403 Y98.815 E0.00842
G1 X135.646 Y98.912 E0.00821
G1 X135.863 Y99.059 E0.00820
G1 X136.043 Y99.249 E0.00820
G1 X136.185 Y99.485 E0.00865
G1 X136.225 Y99.587 E0.00344
G1 X136.282 Y99.849 E0.00842
G1 X136.282 Y100.111 E0.00821
G1 X136.226 Y100.367 E0.00820
G1 X136.116 Y100.604 E0.00820
G1 X135.876 Y100.893 E0.01178
G1 X135.646 Y101.049 E0.00870
G1 X135.342 Y101.161 E0.01018
G1 X135.421 Y101.530 F10800.000
G1 F1200.000
G1 X134.994 Y101.567 E0.01342
G1 X134.655 Y101.511 E0.01078
G1 X134.336 Y101.384 E0.01077
G1 X134.047 Y101.188 E0.01093
G1 X133.924 Y101.070 E0.00537
G1 X133.719 Y100.800 E0.01063
G1 X133.575 Y100.488 E0.01077
G1 X133.501 Y100.152 E0.01077
G1 X133.501 Y99.809 E0.01077
G1 X133.575 Y99.473 E0.01077
G1 X133.719 Y99.162 E0.01077
G1 X133.930 Y98.884 E0.01095
G1 X134.047 Y98.773 E0.00504
G1 X134.336 Y98.577 E0.01095
G1 X134.655 Y98.450 E0.01077
G1 X134.999 Y98.394 E0.01093
G1 X135.170 Y98.395 E0.00537
G1 X135.505 Y98.450 E0.01063
G1 X135.824 Y98.577 E0.01077
G1 X136.108 Y98.770 E0.01077
G1 X136.345 Y99.019 E0.01077
G1 X136.524 Y99.318 E0.01093
G1 X136.587 Y99.478 E0.00537
G1 X136.659 Y99.809 E0.01063
G1 X136.659 Y100.152 E0.01077
G1 X136.585 Y100.488 E0.01077
G1 X136.441 Y100.800 E0.01077
G1 X136.230 Y101.078 E0.01095
G1 X136.113 Y101.188 E0.00504
G1 X135.824 Y101.384 E0.01095
G1 X135.479 Y101.518 E0.01159
G1 X135.153 Y101.233 F10800.000
G1 F8640.000
G1 X134.994 Y101.567 E-0.11260
G1 X134.655 Y101.511 E-0.07935
G1 X134.336 Y101.384 E-0.07931
G1 X134.047 Y101.188 E-0.08050
G1 X133.924 Y101.070 E-0.03954
G1 X133.719 Y100.800 E-0.07828
G1 X133.575 Y100.488 E-0.07935
G1 X133.501 Y100.152 E-0.07931
G1 X133.501 Y99.809 E-0.07931
G1 X133.550 Y99.587 E-0.05244
G1 E-0.04000 F2100.00000
G1 Z0.800 F10800.000
G1 X134.007 Y100.171
G1 Z0.200
G1 E0.80000 F2100.00000
G1 F1200.000
G1 X134.647 Y100.798 E0.03318
G1 X134.833 Y100.872 E0.00740
G1 X135.024 Y100.903 E0.00719
G1 X135.335 Y100.869 E0.01157
G1 X134.194 Y99.728 E0.05972
G1 X134.285 Y99.509 E0.00877
G1 X134.430 Y99.335 E0.00842
G1 X135.726 Y100.631 E0.06787
G1 X135.875 Y100.452 E0.00861
G1 X135.965 Y100.239 E0.00855
G1 X134.820 Y99.095 E0.05992
G1 X134.833 Y99.090 E0.00050
G1 X135.114 Y99.054 E0.01051
G1 X135.327 Y99.089 E0.00798
G1 X135.513 Y99.164 E0.00743
G1 X136.156 Y99.800 E0.03349
G1 F8640.000
G1 X135.513 Y99.164 E-0.20887
G1 X135.327 Y99.089 E-0.04633
G1 X135.114 Y99.054 E-0.04974
G1 X134.833 Y99.090 E-0.06553
G1 X134.820 Y99.095 E-0.00312
G1 X135.965 Y100.239 E-0.37369
G1 X135.943 Y100.290 E-0.01272
G1 E-0.04000 F2100.00000
G1 Z0.800 F10800.000
G1 X135.283 Y91.135
G1 Z0.200
G1 E0.80000 F2100.00000
G1 F1200.000
G1 X135.015 Y91.149 E0.00842
G1 X134.757 Y91.107 E0.00821
G1 X134.514 Y91.010 E0.00820
G1 X134.285 Y90.855 E0.00865
G1 X134.206 Y90.780 E0.00344
G1 X134.044 Y90.566 E0.00842
G1 X133.934 Y90.328 E0.00821
G1 X133.878 Y90.073 E0.00820
G1 X133.878 Y89.811 E0.00820
G1 X133.934 Y89.556 E0.00820
G1 X134.044 Y89.319 E0.00820
G1 X134.284 Y89.029 E0.01178
G1 X134.514 Y88.874 E0.00870
G1 X134.757 Y88.777 E0.00820
G1 X135.029 Y88.732 E0.00865
G1 X135.138 Y88.733 E0.00343
G1 X135.403 Y88.777 E0.00842
G1 X135.646 Y88.874 E0.00821
G1 X135.863 Y89.020 E0.00820
G1 X136.043 Y89.210 E0.00820
G1 X136.185 Y89.447 E0.00865
G1 X136.225 Y89.549 E0.00344
G1 X136.282 Y89.811 E0.00842
G1 X136.282 Y90.073 E0.00821
G1 X136.226 Y90.328 E0.00820
G1 X136.116 Y90.565 E0.00820
G1 X135.876 Y90.854 E0.01178
G1 X135.646 Y91.010 E0.00870
G1 X135.342 Y91.123 E0.01018
G1 X135.421 Y91.491 F10800.000
G1 F1200.000
G1 X134.994 Y91.528 E0.01342
G1 X134.655 Y91.472 E0.01078
G1 X134.336 Y91.345 E0.01077
G1 X134.047 Y91.150 E0.01093
G1 X133.924 Y91.031 E0.00537
G1 X133.719 Y90.761 E0.01063
G1 X133.575 Y90.449 E0.01077
G1 X133.501 Y90.114 E0.01077
G1 X133.501 Y89.770 E0.01077
G1 X133.575 Y89.435 E0.01077
G1 X133.719 Y89.123 E0.01077
G1 X133.930 Y88.845 E0.01095
G1 X134.047 Y88.734 E0.00504
G1 X134.336 Y88.538 E0.01095
G1 X134.655 Y88.411 E0.01077
G1 X134.999 Y88.355 E0.01093
G1 X135.170 Y88.356 E0.00537
G1 X135.505 Y88.411 E0.01063
G1 X135.824 Y88.538 E0.01077
G1 X136.108 Y88.731 E0.01077
G1 X136.345 Y88.981 E0.01077
G1 X136.524 Y89.279 E0.01093
G1 X136.587 Y89.439 E0.00537
G1 X136.659 Y89.770 E0.01063
G1 X136.659 Y90.114 E0.01077
G1 X136.585 Y90.449 E0.01077
G1 X136.441 Y90.761 E0.01077
G1 X136.230 Y91.039 E0.01095
G1 X136.113 Y91.149 E0.00504
G1 X135.824 Y91.345 E0.01095
G1 X135.479 Y91.479 E0.01159
G1 X135.153 Y91.194 F10800.000
G1 F8640.000
G1 X134.994 Y91.528 E-0.11260
G1 X134.655 Y91.472 E-0.07935
G1 X134.336 Y91.345 E-0.07931
G1 X134.047 Y91.150 E-0.08050
G1 X133.924 Y91.031 E-0.03954
G1 X133.719 Y90.761 E-0.07828
G1 X133.575 Y90.449 E-0.07935
G1 X133.501 Y90.114 E-0.07931
G1 X133.501 Y89.770 E-0.07931
G1 X133.550 Y89.548 E-0.05244
G1 E-0.04000 F2100.00000
G1 Z0.800 F10800.000
G1 X134.007 Y90.132
G1 Z0.200
G1 E0.80000 F2100.00000
G1 F1200.000
G1 X134.647 Y90.759 E0.03318
G1 X134.833 Y90.833 E0.00740
G1 X135.024 Y90.864 E0.00719
G1 X135.335 Y90.830 E0.01157
G1 X134.194 Y89.690 E0.05972
G1 X134.285 Y89.471 E0.00877
G1 X134.430 Y89.296 E0.00842
G1 X135.726 Y90.592 E0.06787
G1 X135.875 Y90.413 E0.00861
G1 X135.965 Y90.200 E0.00855
G1 X134.820 Y89.056 E0.05992
G1 X134.833 Y89.051 E0.00050
G1 X135.114 Y89.015 E0.01051
G1 X135.327 Y89.051 E0.00798
G1 X135.513 Y89.125 E0.00743
G1 X136.156 Y89.762 E0.03349
G1 F8640.000
G1 X135.513 Y89.125 E-0.20887
G1 X135.327 Y89.051 E-0.04633
G1 X135.114 Y89.015 E-0.04974
G1 X134.833 Y89.051 E-0.06553
G1 X134.820 Y89.056 E-0.00312
G1 X135.965 Y90.200 E-0.37369
G1 X135.943 Y90.251 E-0.01272
G1 E-0.04000 F2100.00000
G1 Z0.800 F10800.000
G1 X126.145 Y89.549
G1 Z0.200
G1 E0.80000 F2100.00000
G1 F1200.000
G1 X126.202 Y89.811 E0.00842
G1 X126.202 Y90.073 E0.00821
G1 X126.146 Y90.328 E0.00820
G1 X126.036 Y90.565 E0.00820
G1 X125.796 Y90.854 E0.01178
G1 X125.566 Y91.010 E0.00870
G1 X125.310 Y91.112 E0.00865
G1 X124.935 Y91.149 E0.01182
G1 X124.677 Y91.107 E0.00821
G1 X124.434 Y91.010 E0.00820
G1 X124.205 Y90.855 E0.00865
G1 X124.126 Y90.780 E0.00344
G1 X123.964 Y90.566 E0.00842
G1 X123.854 Y90.328 E0.00821
G1 X123.798 Y90.073 E0.00820
G1 X123.798 Y89.811 E0.00820
G1 X123.854 Y89.556 E0.00820
G1 X123.964 Y89.319 E0.00820
G1 X124.204 Y89.029 E0.01178
G1 X124.434 Y88.874 E0.00870
G1 X124.677 Y88.777 E0.00820
G1 X124.949 Y88.732 E0.00865
G1 X125.058 Y88.733 E0.00343
G1 X125.323 Y88.777 E0.00842
G1 X125.566 Y88.874 E0.00821
G1 X125.783 Y89.020 E0.00820
G1 X125.963 Y89.210 E0.00820
G1 X126.123 Y89.493 E0.01018
G1 X126.474 Y89.355 F10800.000
G1 F1200.000
G1 X126.579 Y89.770 E0.01342
